src/images/icons/info-filled.svg

<svg xmlns="http://www.w3.org/2000/svg" width="16" height="16" fill="none"><g clip-path="url(#uia-icons-16-info_filled__a)"><path fill="#00112C" d="M5.0342 0.839937C6.45033 0.253358 8.00859 0.0998821 9.51195 0.398918C11.0153 0.697953 12.3962 1.43607 13.4801 2.51993C14.5639 3.60378 15.3021 4.9847 15.6011 6.48805C15.9001 7.99141 15.7466 9.54967 15.1601 10.9658C14.5735 12.3819 13.5801 13.5923 12.3057 14.4439C11.0312 15.2955 9.53281 15.75 8 15.75C5.94457 15.75 3.97333 14.9335 2.51992 13.4801C1.06652 12.0267 0.25 10.0554 0.25 8C0.25 6.4672 0.704529 4.96881 1.55611 3.69433C2.40769 2.41985 3.61808 1.42652 5.0342 0.839937ZM8.75 4.5C8.75 4.23478 8.64464 3.98043 8.45711 3.79289C8.26957 3.60536 8.01522 3.5 7.75 3.5C7.55222 3.5 7.35888 3.55865 7.19443 3.66853C7.02998 3.77841 6.90181 3.93459 6.82612 4.11732C6.75043 4.30004 6.73063 4.50111 6.76921 4.69509C6.8078 4.88907 6.90304 5.06725 7.04289 5.20711C7.18275 5.34696 7.36093 5.4422 7.55491 5.48079C7.74889 5.51937 7.94996 5.49957 8.13268 5.42388C8.31541 5.34819 8.47159 5.22002 8.58147 5.05557C8.69135 4.89112 8.75 4.69778 8.75 4.5ZM8.75 6.25H6.25V7.75H7.25V10.25H6.25V11.75H9.75V10.25H8.75V6.25Z"/></g><defs><clipPath id="uia-icons-16-info_filled__a"><rect width="16" height="16" fill="#fff"/></clipPath></defs></svg>

<svg xmlns="http://www.w3.org/2000/svg" fill="none" viewBox="0 0 16 16"><g clip-path="url(#info-filled_svg__a)"><path fill="currentColor" d="M5.03.84a7.75 7.75 0 1 1 5.94 14.32A7.75 7.75 0 0 1 5.03.84M8.75 4.5a1 1 0 1 0-2 0 1 1 0 0 0 2 0m0 1.75h-2.5v1.5h1v2.5h-1v1.5h3.5v-1.5h-1z"/></g><defs><clipPath id="info-filled_svg__a"><path fill="currentColor" d="M0 0h16v16H0z"/></clipPath></defs></svg>
